Newaita/actions/32/draw-connector.svg

<svg height="32" viewBox="0 0 32 32" width="32" xmlns="http://www.w3.org/2000/svg"><g fill="#424242"><path d="m17.027344 8.492188c-1.578125.007812-3.242188.4375-4.789063 1.332031-4.125 2.382812-5.824219 7.109375-3.808593 10.601562.207031.359375.445312.691407.707031.992188h.785156c.367187 0 .664063.296875.664063.664062v.5625c2.425781 1.515625 5.898437 1.535157 8.929687-.214843 4.125-2.382813 5.824219-7.113282 3.808594-10.601563-.207031-.359375-.445313-.691406-.710938-.992187h-.78125c-.367187 0-.664062-.296876-.664062-.664063v-.5625c-1.1875-.742187-2.625-1.125-4.140625-1.117187zm.074218 1.316406c2.140626.007812 4.070313.9375 5.078126 2.679687 1.648437 2.855469.164062 6.777344-3.328126 8.792969-3.488281 2.015625-7.628906 1.339844-9.277343-1.515625-1.648438-2.855469-.164063-6.78125 3.324219-8.796875 1.363281-.785156 2.828124-1.164062 4.203124-1.160156zm0 0"/><path d="m18.523438 4.21875v9.261719h9.261718v-7.9375c0-.734375-.589844-1.324219-1.324218-1.324219zm2.644531 2.644531h3.308593c.367188 0 .660157.296875.660157.664063v3.308594h-3.96875zm0 0"/><path d="m13.230469 28.035156v-9.261718h-9.261719v7.9375c0 .734374.589844 1.324218 1.324219 1.324218zm-2.644531-2.648437h-3.308594c-.367188 0-.664063-.292969-.664063-.660157v-3.308593h3.972657zm0 0"/></g></svg>

<svg xmlns="http://www.w3.org/2000/svg" xmlns:xlink="http://www.w3.org/1999/xlink" width="32px" height="32px" viewBox="0 0 32 32" version="1.1">
<g id="surface1">
     <defs>
  <style id="current-color-scheme" type="text/css">
   .ColorScheme-Text { color:#424242; } .ColorScheme-Highlight { color:#eeeeee; }
  </style>
 </defs>
<path style="fill:currentColor" class="ColorScheme-Text" d="M 17.027344 8.492188 C 15.449219 8.5 13.785156 8.929688 12.238281 9.824219 C 8.113281 12.207031 6.414062 16.933594 8.429688 20.425781 C 8.636719 20.785156 8.875 21.117188 9.136719 21.417969 L 9.921875 21.417969 C 10.289062 21.417969 10.585938 21.714844 10.585938 22.082031 L 10.585938 22.644531 C 13.011719 24.160156 16.484375 24.179688 19.515625 22.429688 C 23.640625 20.046875 25.339844 15.316406 23.324219 11.828125 C 23.117188 11.46875 22.878906 11.136719 22.613281 10.835938 L 21.832031 10.835938 C 21.464844 10.835938 21.167969 10.539062 21.167969 10.171875 L 21.167969 9.609375 C 19.980469 8.867188 18.542969 8.484375 17.027344 8.492188 Z M 17.101562 9.808594 C 19.242188 9.816406 21.171875 10.746094 22.179688 12.488281 C 23.828125 15.34375 22.34375 19.265625 18.851562 21.28125 C 15.363281 23.296875 11.222656 22.621094 9.574219 19.765625 C 7.925781 16.910156 9.410156 12.984375 12.898438 10.96875 C 14.261719 10.183594 15.726562 9.804688 17.101562 9.808594 Z M 17.101562 9.808594 "/>
     <defs>
  <style id="current-color-scheme" type="text/css">
   .ColorScheme-Text { color:#424242; } .ColorScheme-Highlight { color:#eeeeee; }
  </style>
 </defs>
<path style="fill:currentColor" class="ColorScheme-Text" d="M 18.523438 4.21875 L 18.523438 13.480469 L 27.785156 13.480469 L 27.785156 5.542969 C 27.785156 4.808594 27.195312 4.21875 26.460938 4.21875 Z M 21.167969 6.863281 L 24.476562 6.863281 C 24.84375 6.863281 25.136719 7.160156 25.136719 7.527344 L 25.136719 10.835938 L 21.167969 10.835938 Z M 21.167969 6.863281 "/>
     <defs>
  <style id="current-color-scheme" type="text/css">
   .ColorScheme-Text { color:#424242; } .ColorScheme-Highlight { color:#eeeeee; }
  </style>
 </defs>
<path style="fill:currentColor" class="ColorScheme-Text" d="M 13.230469 28.035156 L 13.230469 18.773438 L 3.96875 18.773438 L 3.96875 26.710938 C 3.96875 27.445312 4.558594 28.035156 5.292969 28.035156 Z M 10.585938 25.386719 L 7.277344 25.386719 C 6.910156 25.386719 6.613281 25.09375 6.613281 24.726562 L 6.613281 21.417969 L 10.585938 21.417969 Z M 10.585938 25.386719 "/>
</g>
</svg>
